X:5059
T:The Cock Pheasant
M:6/8
R:Jig
L:1/8
Q:180
C:Aidan Crossey
K:Am
|: AAA c2e|AAA c2e|dBA G2E|DGB dcB|
AAA c2e|AAA c2e|dBA DEG|ABA A3:||
|:aaa g2e|aaa g2e|dBA G2A|B2d e2g|
aaa g2e|aaa g2e|ded cBc|deg a3:||
|:age d2e|c2e d2g|age d2e|cAG Ace|
age d2e|c2e d2g| age d2e|cAG A3:||
